Newaita-dark/mimetypes/32/application-x-gzip.svg

<?xml version="1.0" encoding="UTF-8"?>
<svg xmlns="http://www.w3.org/2000/svg" xmlns:xlink="http://www.w3.org/1999/xlink" width="32px" height="32px" viewBox="0 0 32 32" version="1.1">
<defs>
<linearGradient id="linear0" gradientUnits="userSpaceOnUse" x1="254" y1="233.5" x2="254" y2="254.666672" gradientTransform="matrix(0.062506,0,0,0.062506,-0.00000381506,13.438785)">
<stop offset="0" style="stop-color:rgb(0%,0%,0%);stop-opacity:0.27451;"/>
<stop offset="1" style="stop-color:rgb(0%,0%,0%);stop-opacity:0;"/>
</linearGradient>
<radialGradient id="radial0" gradientUnits="userSpaceOnUse" cx="450.908936" cy="189.579361" fx="450.908936" fy="189.579361" r="21.166656" gradientTransform="matrix(0.00000017417,-0.0781325,-0.140638,-0.000000101539,53.12293,63.595333)">
<stop offset="0" style="stop-color:rgb(0%,0%,0%);stop-opacity:0.313726;"/>
<stop offset="0.222222" style="stop-color:rgb(0%,0%,0%);stop-opacity:0.27451;"/>
<stop offset="1" style="stop-color:rgb(0%,0%,0%);stop-opacity:0;"/>
</radialGradient>
<radialGradient id="radial1" gradientUnits="userSpaceOnUse" cx="450.908936" cy="189.579361" fx="450.908936" fy="189.579361" r="21.166656" gradientTransform="matrix(-0.00000017417,0.0781325,0.140638,0.000000101539,-21.20452,-7.527479)">
<stop offset="0" style="stop-color:rgb(0%,0%,0%);stop-opacity:0.313726;"/>
<stop offset="0.222222" style="stop-color:rgb(0%,0%,0%);stop-opacity:0.27451;"/>
<stop offset="1" style="stop-color:rgb(0%,0%,0%);stop-opacity:0;"/>
</radialGradient>
<radialGradient id="radial2" gradientUnits="userSpaceOnUse" cx="450.908936" cy="189.579361" fx="450.908936" fy="189.579361" r="21.166656" gradientTransform="matrix(-0.00000017417,-0.0781325,0.140638,-0.000000101539,-21.20452,63.595333)">
<stop offset="0" style="stop-color:rgb(0%,0%,0%);stop-opacity:0.313726;"/>
<stop offset="0.222222" style="stop-color:rgb(0%,0%,0%);stop-opacity:0.27451;"/>
<stop offset="1" style="stop-color:rgb(0%,0%,0%);stop-opacity:0;"/>
</radialGradient>
<radialGradient id="radial3" gradientUnits="userSpaceOnUse" cx="450.908936" cy="189.579361" fx="450.908936" fy="189.579361" r="21.166656" gradientTransform="matrix(0.00000017417,0.0781325,-0.140638,0.000000101539,53.122929,-7.527479)">
<stop offset="0" style="stop-color:rgb(0%,0%,0%);stop-opacity:0.313726;"/>
<stop offset="0.222222" style="stop-color:rgb(0%,0%,0%);stop-opacity:0.27451;"/>
<stop offset="1" style="stop-color:rgb(0%,0%,0%);stop-opacity:0;"/>
</radialGradient>
<linearGradient id="linear1" gradientUnits="userSpaceOnUse" x1="254" y1="-168.666656" x2="254" y2="233.5" gradientTransform="matrix(0.062506,0,0,0.062506,0,13.438783)">
<stop offset="0" style="stop-color:rgb(100%,87.843138%,50.980395%);stop-opacity:1;"/>
<stop offset="1" style="stop-color:rgb(100%,83.529413%,30.980393%);stop-opacity:1;"/>
</linearGradient>
<linearGradient id="linear2" gradientUnits="userSpaceOnUse" x1="148.166687" y1="-168.666809" x2="148.166687" y2="233.499863" gradientTransform="matrix(1,0,0,1,-31.750023,0.000142415)">
<stop offset="0" style="stop-color:rgb(100%,83.529413%,30.980393%);stop-opacity:1;"/>
<stop offset="1" style="stop-color:rgb(100%,79.215688%,15.686275%);stop-opacity:1;"/>
</linearGradient>
<linearGradient id="linear3" gradientUnits="userSpaceOnUse" x1="148.166687" y1="-168.666809" x2="148.166687" y2="233.499863" gradientTransform="matrix(1,0,0,1,201.083313,0.000142415)">
<stop offset="0" style="stop-color:rgb(100%,83.529413%,30.980393%);stop-opacity:1;"/>
<stop offset="1" style="stop-color:rgb(100%,79.215688%,15.686275%);stop-opacity:1;"/>
</linearGradient>
<linearGradient id="linear4" gradientUnits="userSpaceOnUse" x1="960" y1="1115.118164" x2="960" y2="675.118103" gradientTransform="matrix(0.264583,0,0,0.264583,-116.416687,-215)">
<stop offset="0" style="stop-color:rgb(74.117649%,74.117649%,74.117649%);stop-opacity:1;"/>
<stop offset="1" style="stop-color:rgb(87.843138%,87.843138%,87.843138%);stop-opacity:1;"/>
</linearGradient>
<linearGradient id="linear5" gradientUnits="userSpaceOnUse" x1="164.041641" y1="64.166664" x2="164.041641" y2="0.666662" gradientTransform="matrix(1,0,0,1,-21.16667,42.33334)">
<stop offset="0" style="stop-color:rgb(74.117649%,74.117649%,74.117649%);stop-opacity:1;"/>
<stop offset="1" style="stop-color:rgb(87.843138%,87.843138%,87.843138%);stop-opacity:1;"/>
</linearGradient>
<linearGradient id="linear6" gradientUnits="userSpaceOnUse" x1="158.75" y1="-115.75" x2="158.75" y2="286.416656" gradientTransform="matrix(1,0,0,1,-21.16667,-52.91666)">
<stop offset="0" style="stop-color:rgb(100%,87.843138%,50.980395%);stop-opacity:1;"/>
<stop offset="1" style="stop-color:rgb(100%,83.529413%,30.980393%);stop-opacity:1;"/>
</linearGradient>
<linearGradient id="linear7" gradientUnits="userSpaceOnUse" x1="960" y1="1115.118164" x2="960" y2="675.118103" gradientTransform="matrix(0.264583,0,0,0.264583,116.416649,-215)">
<stop offset="0" style="stop-color:rgb(74.117649%,74.117649%,74.117649%);stop-opacity:1;"/>
<stop offset="1" style="stop-color:rgb(87.843138%,87.843138%,87.843138%);stop-opacity:1;"/>
</linearGradient>
<linearGradient id="linear8" gradientUnits="userSpaceOnUse" x1="164.041641" y1="64.166664" x2="164.041641" y2="0.666662" gradientTransform="matrix(1,0,0,1,211.666672,42.33334)">
<stop offset="0" style="stop-color:rgb(74.117649%,74.117649%,74.117649%);stop-opacity:1;"/>
<stop offset="1" style="stop-color:rgb(87.843138%,87.843138%,87.843138%);stop-opacity:1;"/>
</linearGradient>
<linearGradient id="linear9" gradientUnits="userSpaceOnUse" x1="158.75" y1="-115.75" x2="158.75" y2="286.416656" gradientTransform="matrix(1,0,0,1,211.666672,-52.91666)">
<stop offset="0" style="stop-color:rgb(100%,87.843138%,50.980395%);stop-opacity:1;"/>
<stop offset="1" style="stop-color:rgb(100%,83.529413%,30.980393%);stop-opacity:1;"/>
</linearGradient>
</defs>
<g id="surface1">
<path style=" stroke:none;fill-rule:nonzero;fill:rgb(0%,0%,0%);fill-opacity:0.196078;" d="M 3.96875 28.035156 C 3.234375 28.035156 2.644531 27.445312 2.644531 26.710938 L 2.644531 26.546875 C 2.644531 27.277344 3.234375 27.867188 3.96875 27.867188 L 27.785156 27.867188 C 28.515625 27.867188 29.105469 27.277344 29.105469 26.546875 L 29.105469 26.710938 C 29.105469 27.445312 28.515625 28.035156 27.785156 28.035156 Z M 3.96875 28.035156 "/>
<path style=" stroke:none;fill-rule:nonzero;fill:url(#linear0);" d="M 5.125 28.035156 L 26.792969 28.035156 L 26.792969 29.355469 L 5.125 29.355469 Z M 5.125 28.035156 "/>
<path style=" stroke:none;fill-rule:nonzero;fill:url(#radial0);" d="M 26.792969 28.035156 L 29.4375 28.035156 L 29.4375 26.710938 L 26.792969 26.710938 Z M 26.792969 28.035156 "/>
<path style=" stroke:none;fill-rule:nonzero;fill:url(#radial1);" d="M 5.125 28.035156 L 2.480469 28.035156 L 2.480469 29.355469 L 5.125 29.355469 Z M 5.125 28.035156 "/>
<path style=" stroke:none;fill-rule:nonzero;fill:url(#radial2);" d="M 5.125 28.035156 L 2.480469 28.035156 L 2.480469 26.710938 L 5.125 26.710938 Z M 5.125 28.035156 "/>
<path style=" stroke:none;fill-rule:nonzero;fill:url(#radial3);" d="M 26.792969 28.035156 L 29.4375 28.035156 L 29.4375 29.355469 L 26.792969 29.355469 Z M 26.792969 28.035156 "/>
<path style=" stroke:none;fill-rule:nonzero;fill:url(#linear1);" d="M 3.636719 2.894531 L 28.113281 2.894531 C 28.664062 2.894531 29.105469 3.339844 29.105469 3.886719 L 29.105469 27.042969 C 29.105469 27.589844 28.664062 28.035156 28.113281 28.035156 L 3.636719 28.035156 C 3.089844 28.035156 2.644531 27.589844 2.644531 27.042969 L 2.644531 3.886719 C 2.644531 3.339844 3.089844 2.894531 3.636719 2.894531 Z M 3.636719 2.894531 "/>
<path style=" stroke:none;fill-rule:nonzero;fill:rgb(100%,100%,100%);fill-opacity:0.392157;" d="M 3.636719 2.894531 C 3.089844 2.894531 2.644531 3.339844 2.644531 3.886719 L 2.644531 4.21875 C 2.644531 3.667969 3.089844 3.226562 3.636719 3.226562 L 28.113281 3.226562 C 28.664062 3.226562 29.105469 3.667969 29.105469 4.21875 L 29.105469 3.886719 C 29.105469 3.339844 28.664062 2.894531 28.113281 2.894531 Z M 3.636719 2.894531 "/>
<path style=" stroke:none;fill-rule:nonzero;fill:rgb(1.960784%,1.960784%,1.960784%);fill-opacity:0.235294;" d="M 3.636719 28.035156 C 3.089844 28.035156 2.644531 27.589844 2.644531 27.042969 L 2.644531 26.710938 C 2.644531 27.261719 3.089844 27.703125 3.636719 27.703125 L 28.113281 27.703125 C 28.664062 27.703125 29.105469 27.261719 29.105469 26.710938 L 29.105469 27.042969 C 29.105469 27.589844 28.664062 28.035156 28.113281 28.035156 Z M 3.636719 28.035156 "/>
<path style=" stroke:none;fill-rule:nonzero;fill:rgb(12.941177%,12.941177%,12.941177%);fill-opacity:1;" d="M 3.636719 2.800781 C 3.039062 2.800781 2.550781 3.289062 2.550781 3.886719 L 2.550781 27.042969 C 2.550781 27.640625 3.039062 28.128906 3.636719 28.128906 L 28.113281 28.128906 C 28.714844 28.128906 29.199219 27.640625 29.199219 27.042969 L 29.199219 3.886719 C 29.199219 3.289062 28.714844 2.800781 28.113281 2.800781 Z M 3.636719 2.988281 L 28.113281 2.988281 C 28.613281 2.988281 29.011719 3.390625 29.011719 3.886719 L 29.011719 27.042969 C 29.011719 27.542969 28.613281 27.941406 28.113281 27.941406 L 3.636719 27.941406 C 3.140625 27.941406 2.738281 27.542969 2.738281 27.042969 L 2.738281 3.886719 C 2.738281 3.390625 3.140625 2.988281 3.636719 2.988281 Z M 3.636719 2.988281 "/>
<path style="fill-rule:nonzero;fill:url(#linear2);stroke-width:3;stroke-linecap:round;stroke-linejoin:miter;stroke:rgb(12.941177%,12.941177%,12.941177%);stroke-opacity:1;stroke-miterlimit:4;" d="M 105.802396 -62.827032 L 169.358827 -62.827032 C 175.170772 -62.827032 179.920318 -58.077485 179.920318 -52.26554 L 179.920318 106.469301 C 179.920318 112.34374 175.170772 117.093287 169.358827 117.093287 L 105.802396 117.093287 C 99.990451 117.093287 95.240905 112.34374 95.240905 106.469301 L 95.240905 -52.26554 C 95.240905 -58.077485 99.990451 -62.827032 105.802396 -62.827032 Z M 105.802396 -62.827032 " transform="matrix(0.062506,0,0,0.062506,0,13.438783)"/>
<path style="fill-rule:nonzero;fill:url(#linear3);stroke-width:3;stroke-linecap:round;stroke-linejoin:miter;stroke:rgb(12.941177%,12.941177%,12.941177%);stroke-opacity:1;stroke-miterlimit:4;" d="M 338.65516 -62.827032 L 402.149097 -62.827032 C 408.023536 -62.827032 412.773082 -58.077485 412.773082 -52.26554 L 412.773082 106.469301 C 412.773082 112.34374 408.023536 117.093287 402.149097 117.093287 L 338.65516 117.093287 C 332.843215 117.093287 328.093669 112.34374 328.093669 106.469301 L 328.093669 -52.26554 C 328.093669 -58.077485 332.843215 -62.827032 338.65516 -62.827032 Z M 338.65516 -62.827032 " transform="matrix(0.062506,0,0,0.062506,0,13.438783)"/>
<path style=" stroke:none;fill-rule:nonzero;fill:rgb(0%,0%,0%);fill-opacity:0.196078;" d="M 2.644531 15.300781 L 29.105469 15.300781 L 29.105469 15.464844 L 2.644531 15.464844 Z M 2.644531 15.300781 "/>
<path style=" stroke:none;fill-rule:nonzero;fill:rgb(90.196079%,90.196079%,90.196079%);fill-opacity:0.588235;" d="M 2.644531 15.464844 L 29.105469 15.464844 L 29.105469 15.628906 L 2.644531 15.628906 Z M 2.644531 15.464844 "/>
<path style=" stroke:none;fill-rule:nonzero;fill:rgb(12.941177%,12.941177%,12.941177%);fill-opacity:0.992157;" d="M 2.644531 15.382812 L 29.105469 15.382812 L 29.105469 15.546875 L 2.644531 15.546875 Z M 2.644531 15.382812 "/>
<path style="fill-rule:nonzero;fill:url(#linear4);stroke-width:3;stroke-linecap:round;stroke-linejoin:round;stroke:rgb(12.941177%,12.941177%,12.941177%);stroke-opacity:1;stroke-miterlimit:4;" d="M 116.426382 -36.392056 C 110.551943 -36.392056 105.802396 -31.64251 105.802396 -25.768071 L 105.802396 69.472834 C 105.802396 75.347273 110.551943 80.034326 116.426382 80.034326 L 158.734842 80.034326 C 164.609281 80.034326 169.358827 75.347273 169.358827 69.472834 L 169.358827 -25.768071 C 169.358827 -31.64251 164.609281 -36.392056 158.734842 -36.392056 Z M 119.051131 -28.455314 L 156.110092 -28.455314 C 159.047312 -28.455314 161.422085 -26.080541 161.422085 -23.143321 L 161.422085 66.785591 C 161.422085 69.72281 159.047312 72.097584 156.110092 72.097584 L 119.051131 72.097584 C 116.113912 72.097584 113.801632 69.72281 113.801632 66.785591 L 113.801632 -23.143321 C 113.801632 -26.080541 116.113912 -28.455314 119.051131 -28.455314 Z M 119.051131 -28.455314 " transform="matrix(0.062506,0,0,0.062506,0,13.438783)"/>
<path style="fill-rule:nonzero;fill:url(#linear5);stroke-width:3;stroke-linecap:round;stroke-linejoin:miter;stroke:rgb(12.941177%,12.941177%,12.941177%);stroke-opacity:1;stroke-miterlimit:4;" d="M 126.987873 42.975365 L 148.17335 42.975365 C 153.985295 42.975365 158.734842 47.724911 158.734842 53.59935 L 158.734842 95.90781 C 158.734842 101.782249 153.985295 106.469301 148.17335 106.469301 L 126.987873 106.469301 C 121.175928 106.469301 116.426382 101.782249 116.426382 95.90781 L 116.426382 53.59935 C 116.426382 47.724911 121.175928 42.975365 126.987873 42.975365 Z M 126.987873 42.975365 " transform="matrix(0.062506,0,0,0.062506,0,13.438783)"/>
<path style="fill-rule:nonzero;fill:url(#linear6);stroke-width:3;stroke-linecap:round;stroke-linejoin:miter;stroke:rgb(12.941177%,12.941177%,12.941177%);stroke-opacity:1;stroke-miterlimit:4;" d="M 126.987873 -52.26554 L 148.17335 -52.26554 C 153.985295 -52.26554 158.734842 -47.515994 158.734842 -41.641555 L 158.734842 -25.768071 C 158.734842 -19.956126 153.985295 -15.206579 148.17335 -15.206579 L 126.987873 -15.206579 C 121.175928 -15.206579 116.426382 -19.956126 116.426382 -25.768071 L 116.426382 -41.641555 C 116.426382 -47.515994 121.175928 -52.26554 126.987873 -52.26554 Z M 126.987873 -52.26554 " transform="matrix(0.062506,0,0,0.062506,0,13.438783)"/>
<path style="fill-rule:nonzero;fill:url(#linear7);stroke-width:3;stroke-linecap:round;stroke-linejoin:round;stroke:rgb(12.941177%,12.941177%,12.941177%);stroke-opacity:1;stroke-miterlimit:4;" d="M 349.279146 -36.392056 C 343.404706 -36.392056 338.65516 -31.64251 338.65516 -25.768071 L 338.65516 69.472834 C 338.65516 75.347273 343.404706 80.034326 349.279146 80.034326 L 391.587605 80.034326 C 397.462044 80.034326 402.149097 75.347273 402.149097 69.472834 L 402.149097 -25.768071 C 402.149097 -31.64251 397.462044 -36.392056 391.587605 -36.392056 Z M 351.903895 -28.455314 L 388.962856 -28.455314 C 391.900075 -28.455314 394.212355 -26.080541 394.212355 -23.143321 L 394.212355 66.785591 C 394.212355 69.72281 391.900075 72.097584 388.962856 72.097584 L 351.903895 72.097584 C 348.966675 72.097584 346.591902 69.72281 346.591902 66.785591 L 346.591902 -23.143321 C 346.591902 -26.080541 348.966675 -28.455314 351.903895 -28.455314 Z M 351.903895 -28.455314 " transform="matrix(0.062506,0,0,0.062506,0,13.438783)"/>
<path style="fill-rule:nonzero;fill:url(#linear8);stroke-width:3;stroke-linecap:round;stroke-linejoin:miter;stroke:rgb(12.941177%,12.941177%,12.941177%);stroke-opacity:1;stroke-miterlimit:4;" d="M 359.840637 42.975365 L 381.026114 42.975365 C 386.838059 42.975365 391.587605 47.724911 391.587605 53.59935 L 391.587605 95.90781 C 391.587605 101.782249 386.838059 106.469301 381.026114 106.469301 L 359.840637 106.469301 C 353.966198 106.469301 349.279146 101.782249 349.279146 95.90781 L 349.279146 53.59935 C 349.279146 47.724911 353.966198 42.975365 359.840637 42.975365 Z M 359.840637 42.975365 " transform="matrix(0.062506,0,0,0.062506,0,13.438783)"/>
<path style="fill-rule:nonzero;fill:url(#linear9);stroke-width:3;stroke-linecap:round;stroke-linejoin:miter;stroke:rgb(12.941177%,12.941177%,12.941177%);stroke-opacity:1;stroke-miterlimit:4;" d="M 359.840637 -52.26554 L 381.026114 -52.26554 C 386.838059 -52.26554 391.587605 -47.515994 391.587605 -41.641555 L 391.587605 -25.768071 C 391.587605 -19.956126 386.838059 -15.206579 381.026114 -15.206579 L 359.840637 -15.206579 C 353.966198 -15.206579 349.279146 -19.956126 349.279146 -25.768071 L 349.279146 -41.641555 C 349.279146 -47.515994 353.966198 -52.26554 359.840637 -52.26554 Z M 359.840637 -52.26554 " transform="matrix(0.062506,0,0,0.062506,0,13.438783)"/>
</g>
</svg>

<svg height="32pt" viewBox="0 0 32 32" width="32pt" xmlns="http://www.w3.org/2000/svg" xmlns:xlink="http://www.w3.org/1999/xlink"><linearGradient id="a" gradientUnits="userSpaceOnUse" x1="15.875" x2="15.875" y1="28.03275" y2="29.3556875"><stop offset="0" stop-opacity=".275"/><stop offset="1" stop-opacity="0"/></linearGradient><linearGradient id="b"><stop offset="0" stop-opacity=".314"/><stop offset=".222" stop-opacity=".275"/><stop offset="1" stop-opacity="0"/></linearGradient><radialGradient id="c" cx="450.909" cy="189.579" gradientTransform="matrix(0 -.07813 -.14064 0 53.123 63.595)" gradientUnits="userSpaceOnUse" r="21.167" xlink:href="#b"/><radialGradient id="d" cx="450.909" cy="189.579" gradientTransform="matrix(0 .07813 .14064 0 -21.205 -7.527)" gradientUnits="userSpaceOnUse" r="21.167" xlink:href="#b"/><radialGradient id="e" cx="450.909" cy="189.579" gradientTransform="matrix(0 -.07813 .14064 0 -21.205 63.595)" gradientUnits="userSpaceOnUse" r="21.167" xlink:href="#b"/><radialGradient id="f" cx="450.909" cy="189.579" gradientTransform="matrix(0 .07813 -.14064 0 53.123 -7.527)" gradientUnits="userSpaceOnUse" r="21.167" xlink:href="#b"/><linearGradient id="g"><stop offset="0" stop-color="#ffe082"/><stop offset="1" stop-color="#ffd54f"/></linearGradient><linearGradient id="h" gradientUnits="userSpaceOnUse" x1="15.875" x2="15.875" xlink:href="#g" y1="2.8973125" y2="28.03275"/><linearGradient id="i"><stop offset="0" stop-color="#ffd54f"/><stop offset="1" stop-color="#ffca28"/></linearGradient><linearGradient id="j" gradientUnits="userSpaceOnUse" x1="116.417" x2="116.417" xlink:href="#i" y1="-168.667" y2="233.5"/><linearGradient id="k" gradientUnits="userSpaceOnUse" x1="349.25" x2="349.25" xlink:href="#i" y1="-168.667" y2="233.5"/><linearGradient id="l"><stop offset="0" stop-color="#bdbdbd"/><stop offset="1" stop-color="#e0e0e0"/></linearGradient><linearGradient id="m" gradientUnits="userSpaceOnUse" x1="137.5798" x2="137.5798" xlink:href="#l" y1="80.03792044" y2="-36.37727956"/><linearGradient id="n" gradientUnits="userSpaceOnUse" x1="142.875" x2="142.875" xlink:href="#l" y1="106.5" y2="43"/><linearGradient id="o" gradientUnits="userSpaceOnUse" x1="137.583" x2="137.583" xlink:href="#g" y1="-168.667" y2="233.5"/><linearGradient id="p" gradientUnits="userSpaceOnUse" x1="370.4138" x2="370.4138" xlink:href="#l" y1="80.03792044" y2="-36.37727956"/><linearGradient id="q" gradientUnits="userSpaceOnUse" x1="375.709" x2="375.709" xlink:href="#l" y1="106.5" y2="43"/><linearGradient id="r" gradientUnits="userSpaceOnUse" x1="370.417" x2="370.417" xlink:href="#g" y1="-168.667" y2="233.5"/><path d="m3.969 28.035a1.32 1.32 0 0 1 -1.324-1.324v-.164c0 .73.59 1.32 1.324 1.32h23.816c.73 0 1.32-.59 1.32-1.32v.164a1.32 1.32 0 0 1 -1.32 1.324zm0 0" fill-opacity=".196"/><path d="m5.125 28.035h21.668v1.32h-21.668zm0 0" fill="url(#a)"/><path d="m26.793 28.035h2.645v-1.324h-2.645zm0 0" fill="url(#c)"/><path d="m5.125 28.035h-2.645v1.32h2.645zm0 0" fill="url(#d)"/><path d="m5.125 28.035h-2.645v-1.324h2.645zm0 0" fill="url(#e)"/><path d="m26.793 28.035h2.645v1.32h-2.645zm0 0" fill="url(#f)"/><path d="m3.637 2.895h24.476c.551 0 .992.445.992.992v23.156a.991.991 0 0 1 -.992.992h-24.476a.994.994 0 0 1 -.992-.992v-23.156c0-.547.445-.992.992-.992zm0 0" fill="url(#h)"/><path d="m3.637 2.895a.994.994 0 0 0 -.992.992v.332c0-.551.445-.992.992-.992h24.476c.551 0 .992.441.992.992v-.332a.991.991 0 0 0 -.992-.992zm0 0" fill="#fff" fill-opacity=".392"/><path d="m3.637 28.035a.994.994 0 0 1 -.992-.992v-.332c0 .55.445.992.992.992h24.476c.551 0 .992-.441.992-.992v.332a.991.991 0 0 1 -.992.992zm0 0" fill="#050505" fill-opacity=".235"/><path d="m3.637 2.8c-.598 0-1.086.49-1.086 1.087v23.156c0 .598.488 1.086 1.086 1.086h24.476c.602 0 1.086-.488 1.086-1.086v-23.156c0-.598-.484-1.086-1.086-1.086zm0 .188h24.476c.5 0 .899.403.899.899v23.156c0 .5-.399.898-.899.898h-24.476a.896.896 0 0 1 -.899-.898v-23.156c0-.496.403-.899.899-.899zm0 0" fill="#212121"/><path d="m105.802-62.827h63.557c5.812 0 10.561 4.75 10.561 10.561v158.736c0 5.875-4.75 10.624-10.561 10.624h-63.557c-5.812 0-10.561-4.75-10.561-10.624v-158.736c0-5.811 4.75-10.561 10.561-10.561zm0 0" fill="url(#j)" stroke="#212121" stroke-linecap="round" stroke-width="3" transform="matrix(.0625 0 0 .0625 0 13.439)"/><path d="m338.655-62.827h63.494c5.875 0 10.624 4.75 10.624 10.561v158.736c0 5.875-4.75 10.624-10.624 10.624h-63.494c-5.812 0-10.561-4.75-10.561-10.624v-158.736c0-5.811 4.75-10.561 10.561-10.561zm0 0" fill="url(#k)" stroke="#212121" stroke-linecap="round" stroke-width="3" transform="matrix(.0625 0 0 .0625 0 13.439)"/><path d="m2.645 15.3h26.46v.165h-26.46zm0 0" fill-opacity=".196"/><path d="m2.645 15.465h26.46v.164h-26.46zm0 0" fill="#e6e6e6" fill-opacity=".588"/><path d="m2.645 15.383h26.46v.164h-26.46zm0 0" fill="#212121" fill-opacity=".992"/><g stroke="#212121" stroke-linecap="round" stroke-width="3"><path d="m116.426-36.392a10.615 10.615 0 0 0 -10.624 10.624v95.24c0 5.875 4.75 10.562 10.624 10.562h42.309c5.874 0 10.624-4.687 10.624-10.561v-95.241c0-5.875-4.75-10.624-10.624-10.624zm2.625 7.937h37.06a5.308 5.308 0 0 1 5.311 5.312v89.929a5.308 5.308 0 0 1 -5.312 5.312h-37.059c-2.937 0-5.25-2.375-5.25-5.312v-89.93c0-2.937 2.313-5.311 5.25-5.311zm0 0" fill="url(#m)" stroke-linejoin="round" transform="matrix(.0625 0 0 .0625 0 13.439)"/><path d="m126.988 42.975h21.185c5.812 0 10.562 4.75 10.562 10.624v42.309c0 5.874-4.75 10.561-10.562 10.561h-21.185c-5.812 0-10.562-4.687-10.562-10.561v-42.309c0-5.874 4.75-10.624 10.562-10.624zm0 0" fill="url(#n)" transform="matrix(.0625 0 0 .0625 0 13.439)"/><path d="m126.988-52.266h21.185c5.812 0 10.562 4.75 10.562 10.624v15.874c0 5.812-4.75 10.561-10.562 10.561h-21.185c-5.812 0-10.562-4.75-10.562-10.561v-15.874c0-5.874 4.75-10.624 10.562-10.624zm0 0" fill="url(#o)" transform="matrix(.0625 0 0 .0625 0 13.439)"/><path d="m349.28-36.392a10.615 10.615 0 0 0 -10.625 10.624v95.24c0 5.875 4.75 10.562 10.624 10.562h42.309a10.509 10.509 0 0 0 10.561-10.561v-95.241c0-5.875-4.687-10.624-10.561-10.624zm2.624 7.937h37.059c2.937 0 5.25 2.374 5.25 5.312v89.929c0 2.937-2.313 5.312-5.25 5.312h-37.06a5.308 5.308 0 0 1 -5.311-5.312v-89.93a5.308 5.308 0 0 1 5.312-5.311zm0 0" fill="url(#p)" stroke-linejoin="round" transform="matrix(.0625 0 0 .0625 0 13.439)"/><path d="m359.84 42.975h21.186c5.812 0 10.562 4.75 10.562 10.624v42.309c0 5.874-4.75 10.561-10.562 10.561h-21.185a10.509 10.509 0 0 1 -10.562-10.561v-42.309c0-5.874 4.687-10.624 10.562-10.624zm0 0" fill="url(#q)" transform="matrix(.0625 0 0 .0625 0 13.439)"/><path d="m359.84-52.266h21.186c5.812 0 10.562 4.75 10.562 10.624v15.874c0 5.812-4.75 10.561-10.562 10.561h-21.185c-5.875 0-10.562-4.75-10.562-10.561v-15.874c0-5.874 4.687-10.624 10.562-10.624zm0 0" fill="url(#r)" transform="matrix(.0625 0 0 .0625 0 13.439)"/></g></svg>
